dist/img/sauna.svg

<svg width="100" height="100" viewBox="0 0 100 100" fill="none" xmlns="http://www.w3.org/2000/svg">
<path d="M94.7002 15.0132H91.7705V17.9429H94.7002V15.0132Z" fill="black"/>
<path d="M89.8174 15.0132H86.8877V17.9429H89.8174V15.0132Z" fill="black"/>
<path d="M84.9346 15.0132H65.8215V17.9429H84.9346V15.0132Z" fill="black"/>
<path d="M84.9325 82.0576H72.1788V84.9873H84.9325V82.0576Z" fill="black"/>
<path d="M89.8174 82.0576H86.8877V84.9873H89.8174V82.0576Z" fill="black"/>
<path d="M94.7002 82.0576H91.7705V84.9873H94.7002V82.0576Z" fill="black"/>
<path d="M73.6729 72.4758H60.9192V75.4055H73.6729V72.4758Z" fill="black"/>
<path d="M78.5557 72.4758H75.626V75.4055H78.5557V72.4758Z" fill="black"/>
<path d="M83.4385 72.4758H80.5088V75.4055H83.4385V72.4758Z" fill="black"/>
<path d="M90.4951 24.1306H87.5654V27.0603H90.4951V24.1306Z" fill="black"/>
<path d="M85.6123 24.1306H82.6826V27.0603H85.6123V24.1306Z" fill="black"/>
<path d="M80.7295 24.1306H67.9758V27.0603H80.7295V24.1306Z" fill="black"/>
<path d="M71.6786 33.6089H58.9249V36.5386H71.6786V33.6089Z" fill="black"/>
<path d="M81.4463 33.6089H78.5166V36.5386H81.4463V33.6089Z" fill="black"/>
<path d="M76.5637 33.6089H73.634V36.5386H76.5637V33.6089Z" fill="black"/>
<path d="M14.6423 81.9326H11.7126V84.8623H14.6423V81.9326Z" fill="black"/>
<path d="M19.5251 81.9326H16.5955V84.8623H19.5251V81.9326Z" fill="black"/>
<path d="M9.75977 81.9326H6.83008V84.8623H9.75977V81.9326Z" fill="black"/>
<path d="M24.0896 72.4758H21.1599V75.4055H24.0896V72.4758Z" fill="black"/>
<path d="M33.8551 72.4758H30.9254V75.4055H33.8551V72.4758Z" fill="black"/>
<path d="M28.9723 72.4758H26.0426V75.4055H28.9723V72.4758Z" fill="black"/>
<path d="M48.1244 62.7141H45.1947V65.6438H48.1244V62.7141Z" fill="black"/>
<path d="M53.0072 62.7141H50.0775V65.6438H53.0072V62.7141Z" fill="black"/>
<path d="M57.89 62.7141H54.9603V65.6438H57.89V62.7141Z" fill="black"/>
<path d="M62.7727 62.7141H59.843V65.6438H62.7727V62.7141Z" fill="black"/>
<path d="M22.0819 24.1306H19.1522V27.0603H22.0819V24.1306Z" fill="black"/>
<path d="M26.9647 24.1306H24.035V27.0603H26.9647V24.1306Z" fill="black"/>
<path d="M17.1991 24.1306H14.2694V27.0603H17.1991V24.1306Z" fill="black"/>
<path d="M12.3163 24.1306H9.3866V27.0603H12.3163V24.1306Z" fill="black"/>
<path d="M0 10.312V22.6439H100V10.312H0ZM97.0703 19.7142H2.92969V17.9427H13.4775V15.013H2.92969V13.2417H97.0703V19.7142Z" fill="black"/>
<path d="M43.1973 77.356V70.5241H77.7346V67.5944H43.1973V60.7626H54.2973V57.8329H43.1973V51.0011H49.5768V56.0556H87.9885V51.0011H93.2619V57.8329H58.2037V60.7626H93.2617V67.5944H81.6408V70.5241H93.2617V74.9146H96.1914V25.0854H93.2617V28.5485H6.73828V25.0854H3.80859V74.9147H6.73828V70.5243H12.0129V77.3561H0V89.688H100V77.3561H43.1973V77.356ZM87.9885 31.4782H93.2619V38.3101H87.9885V31.4782ZM87.9885 41.2399H93.2619V48.0718H87.9885V41.2399ZM52.5064 31.4782H85.0588V53.1261H52.5064V31.4782ZM43.1973 31.4782H49.5768V38.3101H43.1973V31.4782ZM43.1973 41.2399H49.5768V48.0718H43.1973V41.2399ZM14.9424 65.6437H19.7184V62.714H14.9424V31.4782H40.2676V41.439H36.9146V44.3687H40.2676V77.356H14.9424V65.6437ZM6.73828 31.4782H12.0129V38.3101H6.73828V31.4782ZM6.73828 41.2399H12.0129V48.0718H6.73828V41.2399ZM6.73828 51.0013H12.0129V57.8331H6.73828V51.0013ZM6.73828 67.5946V60.7628H12.0129V67.5946H6.73828ZM97.0703 80.2856V86.7583H2.92969V80.2856H97.0703Z" fill="black"/>
<path d="M65.5265 48.0718H55.1166V51.0015H65.5265V48.0718Z" fill="black"/>
<path d="M37.3062 48.2554H34.3765V61.6732H37.3062V48.2554Z" fill="black"/>
<path d="M26.1073 33.6089H23.1776V36.5386H26.1073V33.6089Z" fill="black"/>
<path d="M36.9135 33.6089H28.0602V36.5386H36.9135V33.6089Z" fill="black"/>
<path d="M21.2245 33.6089H18.2948V36.5386H21.2245V33.6089Z" fill="black"/>
</svg>

<svg width="100" height="100" fill="none" xmlns="http://www.w3.org/2000/svg"><path d="M94.7 15.013h-2.93v2.93h2.93v-2.93ZM89.817 15.013h-2.93v2.93h2.93v-2.93ZM84.935 15.013H65.82v2.93h19.114v-2.93ZM84.933 82.058H72.178v2.93h12.754v-2.93ZM89.817 82.058h-2.93v2.93h2.93v-2.93ZM94.7 82.058h-2.93v2.93h2.93v-2.93ZM73.673 72.476H60.919v2.93h12.754v-2.93ZM78.556 72.476h-2.93v2.93h2.93v-2.93ZM83.439 72.476h-2.93v2.93h2.93v-2.93ZM90.495 24.13h-2.93v2.93h2.93v-2.93ZM85.612 24.13h-2.93v2.93h2.93v-2.93ZM80.73 24.13H67.975v2.93H80.73v-2.93ZM71.679 33.609H58.925v2.93h12.754v-2.93ZM81.446 33.609h-2.93v2.93h2.93v-2.93ZM76.564 33.609h-2.93v2.93h2.93v-2.93ZM14.642 81.933h-2.93v2.93h2.93v-2.93ZM19.525 81.933h-2.93v2.93h2.93v-2.93ZM9.76 81.933H6.83v2.93h2.93v-2.93ZM24.09 72.476h-2.93v2.93h2.93v-2.93ZM33.855 72.476h-2.93v2.93h2.93v-2.93ZM28.972 72.476h-2.93v2.93h2.93v-2.93ZM48.124 62.714h-2.93v2.93h2.93v-2.93ZM53.007 62.714h-2.93v2.93h2.93v-2.93ZM57.89 62.714h-2.93v2.93h2.93v-2.93ZM62.773 62.714h-2.93v2.93h2.93v-2.93ZM22.082 24.13h-2.93v2.93h2.93v-2.93ZM26.965 24.13h-2.93v2.93h2.93v-2.93ZM17.2 24.13h-2.93v2.93h2.93v-2.93ZM12.316 24.13h-2.93v2.93h2.93v-2.93Z" fill="#000"/><path d="M0 10.312v12.332h100V10.312H0Zm97.07 9.402H2.93v-1.771h10.547v-2.93H2.93v-1.771h94.14v6.472ZM43.197 77.356v-6.832h34.538v-2.93H43.197v-6.831h11.1v-2.93h-11.1V51h6.38v5.055h38.412V51h5.273v6.832H58.204v2.93h35.058v6.831H81.64v2.93h11.62v4.39h2.93V25.086h-2.93v3.463H6.739v-3.463h-2.93v49.83h2.93v-4.39h5.275v6.831H0v12.332h100V77.356H43.197Zm44.791-45.878h5.274v6.832h-5.273v-6.832Zm0 9.762h5.274v6.832h-5.273V41.24Zm-35.482-9.762H85.06v21.648H52.506V31.478Zm-9.309 0h6.38v6.832h-6.38v-6.832Zm0 9.762h6.38v6.832h-6.38V41.24ZM14.942 65.644h4.776v-2.93h-4.776V31.478h25.326v9.961h-3.353v2.93h3.353v32.987H14.942V65.644ZM6.738 31.478h5.275v6.832H6.738v-6.832Zm0 9.762h5.275v6.832H6.738V41.24Zm0 9.761h5.275v6.832H6.738v-6.832Zm0 16.594v-6.832h5.275v6.832H6.738Zm90.332 12.69v6.473H2.93v-6.472h94.14Z" fill="#000"/><path d="M65.526 48.072h-10.41v2.93h10.41v-2.93ZM37.306 48.255h-2.93v13.418h2.93V48.255ZM26.107 33.609h-2.93v2.93h2.93v-2.93ZM36.913 33.609H28.06v2.93h8.854v-2.93ZM21.224 33.609h-2.93v2.93h2.93v-2.93Z" fill="#000"/></svg>
